lib/svgs/weibo.svg

<?xml version="1.0" encoding="UTF-8"?>
<svg width="16px" height="16px" viewBox="0 0 16 16" version="1.1" xmlns="http://www.w3.org/2000/svg" xmlns:xlink="http://www.w3.org/1999/xlink">
    <!-- Generator: sketchtool 51.3 (57544) - http://www.bohemiancoding.com/sketch -->
    <title>brand/weibo</title>
    <desc>Created with sketchtool.</desc>
    <defs></defs>
    <g id="Icons" stroke="none" stroke-width="1" fill="none" fill-rule="evenodd">
        <g id="Web" transform="translate(-243.000000, -1038.000000)" fill="#000000">
            <g id="brand/weibo" transform="translate(243.000000, 1038.000000)">
                <path d="M11.8499436,7.84230848 L11.6000868,7.74549345 C11.3188779,7.58407999 11.5375426,7.32601671 11.5375426,7.32601671 C11.5375426,7.32601671 11.662631,7.10017004 11.7250152,6.74512651 C11.8187515,6.35786638 11.7875594,5.84157461 11.4126142,5.42209787 C11.2251417,5.1962512 10.9752849,5.06721956 10.694076,5.03500295 C10.4754114,5.00262113 10.2565867,5.00262113 10.0692741,5.00262113 C9.19445549,5.09943617 8.31963685,5.5189129 8.31963685,5.5189129 C7.47617028,5.84157461 7.69483495,5.38988127 7.81976334,4.71234125 C7.81976334,3.87322256 7.56990656,2.4535441 5.32039576,3.29249758 C3.07104492,4.13145105 1.13393508,7.06778822 1.13393508,7.06778822 C-0.178212903,9.03614027 0.00925965999,10.5205824 0.00925965999,10.5205824 C0.321660612,13.8441797 3.57091844,14.7477316 6.10147812,14.9735782 C8.72577409,15.1994249 12.2874329,13.9732113 13.3495641,11.4563509 C14.4430474,8.97170705 12.4749054,7.97134012 11.8499436,7.84230848 L11.8499436,7.84230848 L11.8499436,7.84230848 Z M6.28895069,14.0378097 C3.63330265,14.1668414 1.50888021,12.7469977 1.50888021,10.8110275 C1.50888021,8.90710863 3.63330265,7.39044992 6.28895069,7.26141828 C8.91324665,7.10017004 11.006477,8.29400182 11.006477,10.1979207 C11.006477,12.1016743 8.91324665,13.9087781 6.28895069,14.0378097 L6.28895069,14.0378097 L6.28895069,14.0378097 Z M5.75788506,8.5198485 C3.10223703,8.84267541 3.41463798,11.5531659 3.41463798,11.5531659 C3.41463798,11.5531659 3.38344588,12.3921194 4.13317617,12.8115961 C5.66414878,13.7473646 7.25734565,13.1988563 8.06978007,12.0694577 C8.85070248,10.9078425 8.38218103,8.16497018 5.75788506,8.5198485 L5.75788506,8.5198485 L5.75788506,8.5198485 Z M5.10173109,12.2953043 C4.60185758,12.3599028 4.19572034,12.0370759 4.19572034,11.5853825 C4.19572034,11.1336892 4.57066547,10.6818306 5.03918692,10.6173974 C5.60160461,10.552799 5.97654973,10.9078425 5.97654973,11.3595358 C5.97654973,11.8112292 5.5704125,12.2307059 5.10173109,12.2953043 L5.10173109,12.2953043 L5.10173109,12.2953043 Z M6.63254374,10.8432441 C6.47642325,10.9722757 6.28895069,10.9722757 6.1952144,10.8110275 C6.10147812,10.649614 6.13267023,10.3913855 6.28895069,10.2623539 C6.50761536,10.1011056 6.69508792,10.1333222 6.7888242,10.2947357 C6.88256048,10.4559839 6.82001631,10.7142124 6.63254374,10.8432441 L6.63254374,10.8432441 L6.63254374,10.8432441 Z M13.1308994,6.64831148 C13.3495641,6.64831148 13.5370367,6.48706323 13.5683887,6.26105135 L13.5683887,6.19661813 C13.8807897,3.03426908 11.1939496,3.58294267 11.1939496,3.58294267 C10.9439328,3.58294267 10.7566202,3.77640753 10.7566202,4.03463602 C10.7566202,4.2926993 10.9439328,4.51871118 11.1939496,4.51871118 C13.1308994,4.03463602 12.6935701,6.19661813 12.6935701,6.19661813 C12.6935701,6.45468141 12.8810427,6.64831148 13.1308994,6.64831148 L13.1308994,6.64831148 L13.1308994,6.64831148 Z M12.8184985,1.13051546 C11.8812956,0.872286969 10.9439328,1.06591703 10.6628839,1.13051546 C10.6315319,1.13051546 10.6315319,1.16273207 10.6003398,1.16273207 C10.3191309,1.2595471 10.1316583,1.51777559 10.1316583,1.8404373 C10.1316583,2.22753222 10.4128672,2.51797731 10.7566202,2.51797731 C10.7566202,2.51797731 11.1002133,2.48576071 11.3188779,2.38894567 C11.5063505,2.32434725 12.5372896,2.29213064 13.4746525,2.96983587 C13.5683887,3.03426908 13.662125,3.09886751 13.7558613,3.19568254 C14.0057181,3.42152922 14.2555749,3.71197431 14.4430474,4.06685263 C14.974273,5.35766466 14.6618721,6.19661813 14.63052,6.3902482 C14.63052,6.3902482 14.5055916,6.7129099 14.5055916,7.03557161 C14.5055916,7.42283174 14.7868004,7.64867841 15.1303935,7.64867841 C15.4116023,7.64867841 15.6616191,7.61646181 15.7240033,7.06778822 L15.7553554,7.06778822 C16.7551024,3.29249758 14.4743995,1.5499922 12.8184985,1.13051546 L12.8184985,1.13051546 L12.8184985,1.13051546 Z" id="Shape"></path>
            </g>
        </g>
    </g>
</svg>

<svg xmlns="http://www.w3.org/2000/svg" viewBox="0 0 16 16">
    <path d="M11.85 7.842l-.25-.097c-.281-.16-.062-.419-.062-.419s.125-.226.187-.58a1.45 1.45 0 0 0-.312-1.324 1.073 1.073 0 0 0-.719-.387c-.219-.032-.437-.032-.625-.032a6.296 6.296 0 0 0-1.75.516c-.843.323-.624-.13-.5-.807 0-.839-.25-2.258-2.499-1.42-2.249.84-4.186 3.776-4.186 3.776C-.178 9.036.009 10.52.009 10.52c.313 3.323 3.562 4.227 6.092 4.453 2.625.225 6.186-1 7.249-3.518 1.093-2.484-.875-3.485-1.5-3.614zm-5.561 6.196c-2.656.129-4.78-1.291-4.78-3.227 0-1.904 2.124-3.42 4.78-3.55 2.624-.16 4.717 1.033 4.717 2.937s-2.093 3.71-4.717 3.84zM5.758 8.52c-2.656.323-2.343 3.033-2.343 3.033s-.032.84.718 1.259a2.873 2.873 0 0 0 3.937-.743c.78-1.161.312-3.904-2.312-3.55zm-.656 3.775c-.5.065-.906-.258-.906-.71 0-.451.375-.903.843-.968.563-.064.938.29.938.743 0 .451-.407.87-.875.935zm1.53-1.452c-.156.13-.343.13-.437-.032a.457.457 0 0 1 .094-.549c.219-.16.406-.129.5.033.094.161.031.42-.156.548zm6.499-4.195a.443.443 0 0 0 .437-.387v-.064c.313-3.163-2.374-2.614-2.374-2.614a.434.434 0 0 0-.437.452c0 .258.187.484.437.484 1.937-.484 1.5 1.678 1.5 1.678 0 .258.187.451.437.451zm-.313-5.517a4.615 4.615 0 0 0-2.155 0c-.031 0-.031.032-.063.032a.696.696 0 0 0-.468.677c0 .388.28.678.625.678 0 0 .343-.032.562-.13.187-.064 1.218-.096 2.156.582a3.202 3.202 0 0 1 .968 1.097c.531 1.29.219 2.13.188 2.323 0 0-.125.323-.125.646 0 .387.28.613.624.613.282 0 .532-.033.594-.581h.031c1-3.776-1.28-5.518-2.937-5.937z"/>
</svg>
